images/Icon_white.svg

<svg fill="none" height="40" viewBox="0 0 42 40" width="42" xmlns="http://www.w3.org/2000/svg"><path d="m32.3379 4.37539.0008.00047c2.3207 1.47805 4.2921 3.42654 5.7814 5.71454 1.4892 2.288 2.4618 4.8623 2.8522 7.5499m-8.6344-13.26491 8.486 13.28691m-8.486-13.28691c-4.6037-2.89464-10.1786-3.908502-15.5339-2.82545v.00002c-5.2155 1.05724-9.79208 4.0988-12.72698 8.45964l-.0002.0003c-2.85499 4.2642-3.871099 9.4648-2.82527 14.4628l.00015.0006c1.04821 4.8983 4.33233 9.1109 8.49524 11.5223 4.11576 2.4051 8.95096 3.3444 13.69026 2.6598 4.8932-.674 9.409-2.9564 12.8089-6.4748m-3.9082-27.80521 3.8007 27.70061m4.8337-14.4357c0 .0002 0 .0003.0001.0005l-.1485.0215m.1484-.022v-.0001l-.1484.0221m.1484-.022c.8028 5.3686-1.1738 10.8956-4.7262 14.5403m4.5778-14.5183c.7956 5.32-1.1639 10.8008-4.6853 14.4137m.1075.1046c.0001-.0001.0002-.0002.0004-.0004l-.1079-.1042m.1075.1046c0 .0001-.0001.0001-.0001.0001l-.1074-.1047m-31.42741-8.1971-.00018-.0013c-.55863-4.025.53165-8.1035 3.03278-11.3422 2.43241-3.13153 6.03201-5.19017 10.01021-5.72379 1.9029-.24705 3.837-.11636 5.6874.38429 1.8504.50068 3.5792 1.36108 5.0836 2.52995l.0005.00036c2.9497 2.27349 5.0113 5.47309 5.8388 9.06079.8149 3.5646.6224 7.5449-1.1714 11.2893-.9381 1.9407-2.3214 3.6424-4.0418 4.9721-1.7204 1.3296-3.7314 2.2511-5.8756 2.692-2.1986.4377-4.4691.3888-6.6459-.1432-2.1771-.5319-4.2055-1.5336-5.9375-2.9318-3.41937-2.7668-5.45695-6.7521-5.98091-10.7865z" fill="#fff" stroke="#fff" stroke-width=".3"/></svg>

<svg width="42" height="40" viewBox="0 0 42 40" fill="none" xmlns="http://www.w3.org/2000/svg">
<path d="M32.3379 4.37539L32.3387 4.37586C34.6594 5.85391 36.6308 7.8024 38.1201 10.0904C39.6093 12.3784 40.5819 14.9527 40.9723 17.6403M32.3379 4.37539L40.8239 17.6623M32.3379 4.37539C27.7342 1.48075 22.1593 0.466888 16.804 1.54994L16.804 1.54996C11.5885 2.6072 7.01192 5.64876 4.07702 10.0096L4.07682 10.0099C1.22183 14.2741 0.205721 19.4747 1.25155 24.4727L1.2517 24.4733C2.29991 29.3716 5.58403 33.5842 9.74694 35.9956C13.8627 38.4007 18.6979 39.34 23.4372 38.6554C28.3304 37.9814 32.8462 35.699 36.2461 32.1806M32.3379 4.37539L36.1386 32.076M40.9723 17.6403C40.9723 17.6405 40.9723 17.6406 40.9724 17.6408L40.8239 17.6623M40.9723 17.6403C40.9723 17.6403 40.9723 17.6402 40.9723 17.6402L40.8239 17.6623M40.9723 17.6403C41.7751 23.0089 39.7985 28.5359 36.2461 32.1806M40.8239 17.6623C41.6195 22.9823 39.66 28.4631 36.1386 32.076M36.2461 32.1806C36.2462 32.1805 36.2463 32.1804 36.2465 32.1802L36.1386 32.076M36.2461 32.1806C36.2461 32.1807 36.246 32.1807 36.246 32.1807L36.1386 32.076M4.71119 23.8789L4.71101 23.8776C4.15238 19.8526 5.24266 15.7741 7.74379 12.5354C10.1762 9.40387 13.7758 7.34523 17.754 6.81161C19.6569 6.56456 21.591 6.69525 23.4414 7.1959C25.2918 7.69658 27.0206 8.55698 28.525 9.72585L28.5255 9.72621C31.4752 11.9997 33.5368 15.1993 34.3643 18.787C35.1792 22.3516 34.9867 26.3319 33.1929 30.0763C32.2548 32.017 30.8715 33.7187 29.1511 35.0484C27.4307 36.378 25.4197 37.2995 23.2755 37.7404C21.0769 38.1781 18.8064 38.1292 16.6296 37.5972C14.4525 37.0653 12.4241 36.0636 10.6921 34.6654C7.27273 31.8986 5.23515 27.9133 4.71119 23.8789Z" fill="white" stroke="white" stroke-width="0.3"/>
</svg>
